X: 1
T: SHEPHERD'S HEY
S: CJS MSS
O: Adderbury
B: Morris Ring
Z: 2005 John Chambers <jc@trillian.mit.edu>
M: 4/4
L: 1/8
K: F
P: A
F | ABcA B2B2 | ABcA G2C2 | ABcA B2AB | c2C2 F4 ||
P: B
F/G/ | A2F2 B4 | A2F2 G4 | A2c2 B2AB | c2C2 F3 ||
